!!! OTL: Tien-, Sha\, Huan/, He/, Sh/, Ba-, Wan- (Eighteen Turns with Yellow River)
!!! YEC: Copyright 2001, Chia-wei Lee
!! For Voice Only
!![Andante]
**kern	**silbe
*clefG2	*LXinhua
*E:	*ping-ying
*M2/4	*
=5	=5
4a	Hei
(8a	Io
8cc#)	Ho
=6	=6
4dd#	Hei
8dd#	Io
8r	.
=7	=7
(8cc#	Ai
8dd#)	Hei
(8cc#	Io
8g#)	Ho
=8	=8
4a	Hei
4r	.
=9	=9
4a	Hei
(8a	Io
8c#)	Ho
=10	=10
4dd#	Hei
8dd#	Io
8r	.
=11	=11
(8cc#	Ai
8dd#)	|
(8cc#	Io
8g#)	Ho
=12	=12
4a	Hei
4r	.
=13	=13
4gg#	Hei
(8gg#	Io
8ee)	Ho
=14	=14
4dd#;	Hei
4r	.
=15	=15
4gg#	Hei
(8gg#	Io
8ee)	Ho
=16	=16
2dd#;	Hei
*-	*-
